images/11949169.svg

<?xml version="1.0" encoding="UTF-8"?>
<svg xmlns="http://www.w3.org/2000/svg" xmlns:xlink="http://www.w3.org/1999/xlink" width="300pt" height="300pt" viewBox="0 0 300 300" version="1.1">
<defs>
<g>
<symbol overflow="visible" id="glyph0-0">
<path style="stroke:none;" d="M 0.453125 1.59375 L 0.453125 -6.34375 L 4.953125 -6.34375 L 4.953125 1.59375 Z M 0.953125 1.09375 L 4.453125 1.09375 L 4.453125 -5.84375 L 0.953125 -5.84375 Z M 0.953125 1.09375 "/>
</symbol>
<symbol overflow="visible" id="glyph0-1">
<path style="stroke:none;" d="M 0.890625 -6.5625 L 2.078125 -6.5625 L 4.984375 -1.078125 L 4.984375 -6.5625 L 5.84375 -6.5625 L 5.84375 0 L 4.65625 0 L 1.75 -5.484375 L 1.75 0 L 0.890625 0 Z M 0.890625 -6.5625 "/>
</symbol>
<symbol overflow="visible" id="glyph0-2">
<path style="stroke:none;" d="M 0.890625 -6.5625 L 4.65625 -6.5625 L 4.65625 -5.8125 L 1.765625 -5.8125 L 1.765625 -3.875 L 4.375 -3.875 L 4.375 -3.140625 L 1.765625 -3.140625 L 1.765625 0 L 0.890625 0 Z M 0.890625 -6.5625 "/>
</symbol>
</g>
</defs>
<g id="surface43769">
<rect x="0" y="0" width="300" height="300" style="fill:rgb(100%,100%,100%);fill-opacity:1;stroke:none;"/>
<path style="fill:none;stroke-width:1;stroke-linecap:butt;stroke-linejoin:miter;stroke:rgb(0%,0%,0%);stroke-opacity:1;stroke-miterlimit:10;" d="M 141.667969 137.722656 L 141.667969 137.722656 M 144.007812 139.601562 L 144.507812 138.6875 M 146.34375 141.480469 L 147.347656 139.652344 M 148.683594 143.359375 L 150.1875 140.617188 M 151.019531 145.238281 L 153.027344 141.582031 M 153.359375 147.117188 L 155.871094 142.546875 M 155.699219 148.996094 L 158.710938 143.515625 M 158.035156 150.875 L 161.550781 144.480469 M 160.375 152.757812 L 164.390625 145.445312 M 161.761719 153.867188 L 166.074219 146.015625 "/>
<path style="fill:none;stroke-width:1.2;stroke-linecap:butt;stroke-linejoin:miter;stroke:rgb(0%,0%,100%);stroke-opacity:1;stroke-miterlimit:10;" d="M 182.414062 132.558594 L 173.164062 141.25 "/>
<path style="fill:none;stroke-width:1.2;stroke-linecap:butt;stroke-linejoin:miter;stroke:rgb(0%,0%,0%);stroke-opacity:1;stroke-miterlimit:10;" d="M 173.164062 141.25 L 163.917969 149.941406 "/>
<path style="fill:none;stroke-width:1.2;stroke-linecap:butt;stroke-linejoin:miter;stroke:rgb(0%,0%,0%);stroke-opacity:1;stroke-miterlimit:10;" d="M 141.667969 137.722656 L 116.484375 140.914062 "/>
<path style="fill:none;stroke-width:1.2;stroke-linecap:butt;stroke-linejoin:miter;stroke:rgb(0%,0%,0%);stroke-opacity:1;stroke-miterlimit:10;" d="M 146.414062 112.785156 L 141.667969 137.722656 "/>
<path style="fill:none;stroke-width:1.2;stroke-linecap:butt;stroke-linejoin:miter;stroke:rgb(0%,0%,0%);stroke-opacity:1;stroke-miterlimit:10;" d="M 116.484375 140.914062 L 110.800781 117.296875 "/>
<path style="fill:none;stroke-width:1.2;stroke-linecap:butt;stroke-linejoin:miter;stroke:rgb(0%,0%,0%);stroke-opacity:1;stroke-miterlimit:10;" d="M 116.484375 140.914062 L 104.261719 163.164062 "/>
<path style="fill:none;stroke-width:1.2;stroke-linecap:butt;stroke-linejoin:miter;stroke:rgb(0%,0%,0%);stroke-opacity:1;stroke-miterlimit:10;" d="M 110.800781 117.296875 L 130.863281 132.847656 "/>
<path style="fill:none;stroke-width:1.2;stroke-linecap:butt;stroke-linejoin:miter;stroke:rgb(0%,0%,0%);stroke-opacity:1;stroke-miterlimit:10;" d="M 110.800781 117.296875 L 85.617188 120.488281 "/>
<path style="fill:none;stroke-width:1.2;stroke-linecap:butt;stroke-linejoin:miter;stroke:rgb(0%,0%,0%);stroke-opacity:1;stroke-miterlimit:10;" d="M 126.351562 97.234375 L 110.800781 117.296875 "/>
<path style="fill:none;stroke-width:1.2;stroke-linecap:butt;stroke-linejoin:miter;stroke:rgb(0%,0%,0%);stroke-opacity:1;stroke-miterlimit:10;" d="M 130.863281 132.847656 L 146.414062 112.785156 "/>
<path style="fill:none;stroke-width:1.2;stroke-linecap:butt;stroke-linejoin:miter;stroke:rgb(0%,0%,0%);stroke-opacity:1;stroke-miterlimit:10;" d="M 146.414062 112.785156 L 126.351562 97.234375 "/>
<path style="fill:none;stroke-width:1.2;stroke-linecap:butt;stroke-linejoin:miter;stroke:rgb(0%,0%,0%);stroke-opacity:1;stroke-miterlimit:10;" d="M 146.414062 112.785156 L 171.597656 109.59375 "/>
<path style="fill:none;stroke-width:1.2;stroke-linecap:butt;stroke-linejoin:miter;stroke:rgb(0%,0%,0%);stroke-opacity:1;stroke-miterlimit:10;" d="M 171.597656 109.59375 L 177.007812 121.078125 "/>
<path style="fill:none;stroke-width:1.2;stroke-linecap:butt;stroke-linejoin:miter;stroke:rgb(0%,0%,100%);stroke-opacity:1;stroke-miterlimit:10;" d="M 177.007812 121.078125 L 182.414062 132.558594 "/>
<path style=" stroke:none;fill-rule:nonzero;fill:rgb(0%,0%,0%);fill-opacity:1;" d="M 171.597656 109.59375 L 187.746094 89.5 L 179.894531 85.1875 Z M 171.597656 109.59375 "/>
<path style="fill:none;stroke-width:1.2;stroke-linecap:butt;stroke-linejoin:miter;stroke:rgb(0%,0%,100%);stroke-opacity:1;stroke-miterlimit:10;" d="M 182.414062 132.558594 L 194.882812 134.933594 "/>
<path style="fill:none;stroke-width:1.2;stroke-linecap:butt;stroke-linejoin:miter;stroke:rgb(0%,0%,0%);stroke-opacity:1;stroke-miterlimit:10;" d="M 194.882812 134.933594 L 207.351562 137.304688 "/>
<path style=" stroke:none;fill-rule:nonzero;fill:rgb(100%,100%,100%);fill-opacity:1;" d="M 179.414062 127.058594 L 186.414062 127.058594 L 186.414062 138.058594 L 179.414062 138.058594 Z M 179.414062 127.058594 "/>
<g style="fill:rgb(0%,0%,100%);fill-opacity:1;">
  <use xlink:href="#glyph0-1" x="179.414062" y="135.72168"/>
</g>
<path style="fill:none;stroke-width:1.2;stroke-linecap:butt;stroke-linejoin:miter;stroke:rgb(0%,0%,0%);stroke-opacity:1;stroke-miterlimit:10;" d="M 207.351562 137.304688 L 215.707031 161.277344 "/>
<path style="fill:none;stroke-width:1.2;stroke-linecap:butt;stroke-linejoin:miter;stroke:rgb(0%,0%,0%);stroke-opacity:1;stroke-miterlimit:10;" d="M 215.707031 161.277344 L 199.128906 180.496094 "/>
<path style="fill:none;stroke-width:1.2;stroke-linecap:butt;stroke-linejoin:miter;stroke:rgb(0%,0%,0%);stroke-opacity:1;stroke-miterlimit:10;" d="M 218.574219 167.097656 L 205.308594 182.476562 "/>
<path style="fill:none;stroke-width:1.2;stroke-linecap:butt;stroke-linejoin:miter;stroke:rgb(0%,0%,0%);stroke-opacity:1;stroke-miterlimit:10;" d="M 240.644531 166.023438 L 215.707031 161.277344 "/>
<path style="fill:none;stroke-width:1.2;stroke-linecap:butt;stroke-linejoin:miter;stroke:rgb(0%,0%,0%);stroke-opacity:1;stroke-miterlimit:10;" d="M 199.128906 180.496094 L 207.488281 204.46875 "/>
<path style="fill:none;stroke-width:1.2;stroke-linecap:butt;stroke-linejoin:miter;stroke:rgb(0%,0%,0%);stroke-opacity:1;stroke-miterlimit:10;" d="M 207.488281 204.46875 L 232.421875 209.214844 "/>
<path style="fill:none;stroke-width:1.2;stroke-linecap:butt;stroke-linejoin:miter;stroke:rgb(0%,0%,0%);stroke-opacity:1;stroke-miterlimit:10;" d="M 211.097656 199.074219 L 231.046875 202.871094 "/>
<path style="fill:none;stroke-width:1.2;stroke-linecap:butt;stroke-linejoin:miter;stroke:rgb(0%,0%,0%);stroke-opacity:1;stroke-miterlimit:10;" d="M 232.421875 209.214844 L 249.003906 189.992188 "/>
<path style="fill:none;stroke-width:1.2;stroke-linecap:butt;stroke-linejoin:miter;stroke:rgb(0%,0%,0%);stroke-opacity:1;stroke-miterlimit:10;" d="M 232.421875 209.214844 L 240.78125 233.183594 "/>
<path style="fill:none;stroke-width:1.2;stroke-linecap:butt;stroke-linejoin:miter;stroke:rgb(0%,0%,0%);stroke-opacity:1;stroke-miterlimit:10;" d="M 249.003906 189.992188 L 240.644531 166.023438 "/>
<path style="fill:none;stroke-width:1.2;stroke-linecap:butt;stroke-linejoin:miter;stroke:rgb(0%,0%,0%);stroke-opacity:1;stroke-miterlimit:10;" d="M 242.527344 189.5625 L 235.839844 170.386719 "/>
<path style="fill:none;stroke-width:1.2;stroke-linecap:butt;stroke-linejoin:miter;stroke:rgb(0%,0%,0%);stroke-opacity:1;stroke-miterlimit:10;" d="M 240.78125 233.183594 L 244.957031 245.167969 "/>
<path style="fill:none;stroke-width:1.2;stroke-linecap:butt;stroke-linejoin:miter;stroke:rgb(20%,80%,80%);stroke-opacity:1;stroke-miterlimit:10;" d="M 244.957031 245.167969 L 249.136719 257.152344 "/>
<path style="fill:none;stroke-width:1.2;stroke-linecap:butt;stroke-linejoin:miter;stroke:rgb(0%,0%,0%);stroke-opacity:1;stroke-miterlimit:10;" d="M 240.78125 233.183594 L 228.796875 237.363281 "/>
<path style="fill:none;stroke-width:1.2;stroke-linecap:butt;stroke-linejoin:miter;stroke:rgb(20%,80%,80%);stroke-opacity:1;stroke-miterlimit:10;" d="M 228.796875 237.363281 L 216.8125 241.542969 "/>
<path style="fill:none;stroke-width:1.2;stroke-linecap:butt;stroke-linejoin:miter;stroke:rgb(0%,0%,0%);stroke-opacity:1;stroke-miterlimit:10;" d="M 240.78125 233.183594 L 252.765625 229.007812 "/>
<path style="fill:none;stroke-width:1.2;stroke-linecap:butt;stroke-linejoin:miter;stroke:rgb(20%,80%,80%);stroke-opacity:1;stroke-miterlimit:10;" d="M 252.765625 229.007812 L 264.75 224.828125 "/>
<path style=" stroke:none;fill-rule:nonzero;fill:rgb(100%,100%,100%);fill-opacity:1;" d="M 246.136719 251.652344 L 252.136719 251.652344 L 252.136719 262.652344 L 246.136719 262.652344 Z M 246.136719 251.652344 "/>
<g style="fill:rgb(20%,80%,80%);fill-opacity:1;">
  <use xlink:href="#glyph0-2" x="246.136719" y="260.31543"/>
</g>
<path style=" stroke:none;fill-rule:nonzero;fill:rgb(100%,100%,100%);fill-opacity:1;" d="M 210.8125 236.042969 L 216.8125 236.042969 L 216.8125 247.042969 L 210.8125 247.042969 Z M 210.8125 236.042969 "/>
<g style="fill:rgb(20%,80%,80%);fill-opacity:1;">
  <use xlink:href="#glyph0-2" x="210.8125" y="244.706055"/>
</g>
<path style=" stroke:none;fill-rule:nonzero;fill:rgb(100%,100%,100%);fill-opacity:1;" d="M 261.75 219.328125 L 267.75 219.328125 L 267.75 230.328125 L 261.75 230.328125 Z M 261.75 219.328125 "/>
<g style="fill:rgb(20%,80%,80%);fill-opacity:1;">
  <use xlink:href="#glyph0-2" x="261.75" y="227.991211"/>
</g>
<path style="fill:none;stroke-width:1.2;stroke-linecap:butt;stroke-linejoin:miter;stroke:rgb(0%,0%,0%);stroke-opacity:1;stroke-miterlimit:10;" d="M 183.820312 87.34375 L 209.199219 86.804688 "/>
<path style="fill:none;stroke-width:1.2;stroke-linecap:butt;stroke-linejoin:miter;stroke:rgb(0%,0%,0%);stroke-opacity:1;stroke-miterlimit:10;" d="M 186.230469 81.320312 L 206.53125 80.886719 "/>
<path style="fill:none;stroke-width:1.2;stroke-linecap:butt;stroke-linejoin:miter;stroke:rgb(0%,0%,0%);stroke-opacity:1;stroke-miterlimit:10;" d="M 170.660156 65.636719 L 183.820312 87.34375 "/>
<path style="fill:none;stroke-width:1.2;stroke-linecap:butt;stroke-linejoin:miter;stroke:rgb(0%,0%,0%);stroke-opacity:1;stroke-miterlimit:10;" d="M 209.199219 86.804688 L 221.417969 64.554688 "/>
<path style="fill:none;stroke-width:1.2;stroke-linecap:butt;stroke-linejoin:miter;stroke:rgb(0%,0%,0%);stroke-opacity:1;stroke-miterlimit:10;" d="M 221.417969 64.554688 L 208.261719 42.847656 "/>
<path style="fill:none;stroke-width:1.2;stroke-linecap:butt;stroke-linejoin:miter;stroke:rgb(0%,0%,0%);stroke-opacity:1;stroke-miterlimit:10;" d="M 214.996094 65.480469 L 204.46875 48.113281 "/>
<path style="fill:none;stroke-width:1.2;stroke-linecap:butt;stroke-linejoin:miter;stroke:rgb(0%,0%,0%);stroke-opacity:1;stroke-miterlimit:10;" d="M 208.261719 42.847656 L 182.882812 43.386719 "/>
<path style="fill:none;stroke-width:1.2;stroke-linecap:butt;stroke-linejoin:miter;stroke:rgb(0%,0%,0%);stroke-opacity:1;stroke-miterlimit:10;" d="M 182.882812 43.386719 L 170.660156 65.636719 "/>
<path style="fill:none;stroke-width:1.2;stroke-linecap:butt;stroke-linejoin:miter;stroke:rgb(0%,0%,0%);stroke-opacity:1;stroke-miterlimit:10;" d="M 186.894531 48.488281 L 177.117188 66.285156 "/>
<path style="fill:none;stroke-width:1.2;stroke-linecap:butt;stroke-linejoin:miter;stroke:rgb(0%,0%,0%);stroke-opacity:1;stroke-miterlimit:10;" d="M 85.617188 120.488281 L 70.261719 100.273438 "/>
<path style="fill:none;stroke-width:1.2;stroke-linecap:butt;stroke-linejoin:miter;stroke:rgb(0%,0%,0%);stroke-opacity:1;stroke-miterlimit:10;" d="M 79.324219 122.082031 L 67.039062 105.910156 "/>
<path style="fill:none;stroke-width:1.2;stroke-linecap:butt;stroke-linejoin:miter;stroke:rgb(0%,0%,0%);stroke-opacity:1;stroke-miterlimit:10;" d="M 75.789062 143.894531 L 85.617188 120.488281 "/>
<path style="fill:none;stroke-width:1.2;stroke-linecap:butt;stroke-linejoin:miter;stroke:rgb(0%,0%,0%);stroke-opacity:1;stroke-miterlimit:10;" d="M 70.261719 100.273438 L 45.078125 103.464844 "/>
<path style="fill:none;stroke-width:1.2;stroke-linecap:butt;stroke-linejoin:miter;stroke:rgb(0%,0%,0%);stroke-opacity:1;stroke-miterlimit:10;" d="M 45.078125 103.464844 L 35.25 126.871094 "/>
<path style="fill:none;stroke-width:1.2;stroke-linecap:butt;stroke-linejoin:miter;stroke:rgb(0%,0%,0%);stroke-opacity:1;stroke-miterlimit:10;" d="M 49.601562 108.117188 L 41.738281 126.84375 "/>
<path style="fill:none;stroke-width:1.2;stroke-linecap:butt;stroke-linejoin:miter;stroke:rgb(0%,0%,0%);stroke-opacity:1;stroke-miterlimit:10;" d="M 35.25 126.871094 L 50.605469 147.085938 "/>
<path style="fill:none;stroke-width:1.2;stroke-linecap:butt;stroke-linejoin:miter;stroke:rgb(0%,0%,0%);stroke-opacity:1;stroke-miterlimit:10;" d="M 50.605469 147.085938 L 75.789062 143.894531 "/>
<path style="fill:none;stroke-width:1.2;stroke-linecap:butt;stroke-linejoin:miter;stroke:rgb(0%,0%,0%);stroke-opacity:1;stroke-miterlimit:10;" d="M 52.371094 140.839844 L 72.519531 138.285156 "/>
<path style="fill:none;stroke-width:1.2;stroke-linecap:butt;stroke-linejoin:miter;stroke:rgb(0%,0%,0%);stroke-opacity:1;stroke-miterlimit:10;" d="M 104.261719 163.164062 L 78.882812 163.703125 "/>
<path style="fill:none;stroke-width:1.2;stroke-linecap:butt;stroke-linejoin:miter;stroke:rgb(0%,0%,0%);stroke-opacity:1;stroke-miterlimit:10;" d="M 101.851562 169.1875 L 81.550781 169.621094 "/>
<path style="fill:none;stroke-width:1.2;stroke-linecap:butt;stroke-linejoin:miter;stroke:rgb(0%,0%,0%);stroke-opacity:1;stroke-miterlimit:10;" d="M 117.421875 184.871094 L 104.261719 163.164062 "/>
<path style="fill:none;stroke-width:1.2;stroke-linecap:butt;stroke-linejoin:miter;stroke:rgb(0%,0%,0%);stroke-opacity:1;stroke-miterlimit:10;" d="M 78.882812 163.703125 L 66.664062 185.953125 "/>
<path style="fill:none;stroke-width:1.2;stroke-linecap:butt;stroke-linejoin:miter;stroke:rgb(0%,0%,0%);stroke-opacity:1;stroke-miterlimit:10;" d="M 66.664062 185.953125 L 79.820312 207.660156 "/>
<path style="fill:none;stroke-width:1.2;stroke-linecap:butt;stroke-linejoin:miter;stroke:rgb(0%,0%,0%);stroke-opacity:1;stroke-miterlimit:10;" d="M 73.085938 185.027344 L 83.613281 202.394531 "/>
<path style="fill:none;stroke-width:1.2;stroke-linecap:butt;stroke-linejoin:miter;stroke:rgb(0%,0%,0%);stroke-opacity:1;stroke-miterlimit:10;" d="M 79.820312 207.660156 L 105.199219 207.121094 "/>
<path style="fill:none;stroke-width:1.2;stroke-linecap:butt;stroke-linejoin:miter;stroke:rgb(0%,0%,0%);stroke-opacity:1;stroke-miterlimit:10;" d="M 79.820312 207.660156 L 67.601562 229.910156 "/>
<path style="fill:none;stroke-width:1.2;stroke-linecap:butt;stroke-linejoin:miter;stroke:rgb(0%,0%,0%);stroke-opacity:1;stroke-miterlimit:10;" d="M 105.199219 207.121094 L 117.421875 184.871094 "/>
<path style="fill:none;stroke-width:1.2;stroke-linecap:butt;stroke-linejoin:miter;stroke:rgb(0%,0%,0%);stroke-opacity:1;stroke-miterlimit:10;" d="M 101.1875 202.019531 L 110.964844 184.21875 "/>
<path style="fill:none;stroke-width:1.2;stroke-linecap:butt;stroke-linejoin:miter;stroke:rgb(0%,0%,0%);stroke-opacity:1;stroke-miterlimit:10;" d="M 67.601562 229.910156 L 61.488281 241.035156 "/>
<path style="fill:none;stroke-width:1.2;stroke-linecap:butt;stroke-linejoin:miter;stroke:rgb(20%,80%,80%);stroke-opacity:1;stroke-miterlimit:10;" d="M 61.488281 241.035156 L 55.378906 252.160156 "/>
<path style="fill:none;stroke-width:1.2;stroke-linecap:butt;stroke-linejoin:miter;stroke:rgb(0%,0%,0%);stroke-opacity:1;stroke-miterlimit:10;" d="M 67.601562 229.910156 L 56.476562 223.800781 "/>
<path style="fill:none;stroke-width:1.2;stroke-linecap:butt;stroke-linejoin:miter;stroke:rgb(20%,80%,80%);stroke-opacity:1;stroke-miterlimit:10;" d="M 56.476562 223.800781 L 45.351562 217.6875 "/>
<path style="fill:none;stroke-width:1.2;stroke-linecap:butt;stroke-linejoin:miter;stroke:rgb(0%,0%,0%);stroke-opacity:1;stroke-miterlimit:10;" d="M 67.601562 229.910156 L 78.726562 236.019531 "/>
<path style="fill:none;stroke-width:1.2;stroke-linecap:butt;stroke-linejoin:miter;stroke:rgb(20%,80%,80%);stroke-opacity:1;stroke-miterlimit:10;" d="M 78.726562 236.019531 L 89.851562 242.132812 "/>
<path style=" stroke:none;fill-rule:nonzero;fill:rgb(100%,100%,100%);fill-opacity:1;" d="M 49.378906 246.660156 L 55.378906 246.660156 L 55.378906 257.660156 L 49.378906 257.660156 Z M 49.378906 246.660156 "/>
<g style="fill:rgb(20%,80%,80%);fill-opacity:1;">
  <use xlink:href="#glyph0-2" x="49.378906" y="255.323242"/>
</g>
<path style=" stroke:none;fill-rule:nonzero;fill:rgb(100%,100%,100%);fill-opacity:1;" d="M 39.351562 212.1875 L 45.351562 212.1875 L 45.351562 223.1875 L 39.351562 223.1875 Z M 39.351562 212.1875 "/>
<g style="fill:rgb(20%,80%,80%);fill-opacity:1;">
  <use xlink:href="#glyph0-2" x="39.351562" y="220.850586"/>
</g>
<path style=" stroke:none;fill-rule:nonzero;fill:rgb(100%,100%,100%);fill-opacity:1;" d="M 86.851562 236.632812 L 92.851562 236.632812 L 92.851562 247.632812 L 86.851562 247.632812 Z M 86.851562 236.632812 "/>
<g style="fill:rgb(20%,80%,80%);fill-opacity:1;">
  <use xlink:href="#glyph0-2" x="86.851562" y="245.295898"/>
</g>
</g>
</svg>

<svg xmlns="http://www.w3.org/2000/svg" xmlns:xlink="http://www.w3.org/1999/xlink" width="300pt" height="300pt" viewBox="0 0 300 300"><defs><symbol overflow="visible"><path d="M.453 1.594v-7.938h4.5v7.938zm.5-.5h3.5v-6.938h-3.5zm0 0"/></symbol><symbol overflow="visible" id="a"><path d="M.89-6.563H2.08l2.906 5.485v-5.484h.86V0H4.656L1.75-5.484V0H.89zm0 0"/></symbol><symbol overflow="visible" id="b"><path d="M.89-6.563h3.766v.75h-2.89v1.938h2.61v.734h-2.61V0H.89zm0 0"/></symbol></defs><g><path fill="#fff" d="M0 0h300v300H0z"/><path d="M141.668 137.723m2.34 1.88l.5-.916m1.836 2.793l1.004-1.828m1.336 3.707l1.504-2.743m.832 4.62l2.007-3.655m.332 5.535l2.51-4.57m-.17 6.45l3.01-5.48m-.675 7.358l3.516-6.395m-1.175 8.278l4.016-7.313m-2.628 8.422l4.312-7.85" stroke="#000" stroke-miterlimit="10" fill="none"/><path d="M182.414 132.56l-9.25 8.69" stroke-width="1.2" stroke="#00f" stroke-miterlimit="10" fill="none"/><path d="M173.164 141.25l-9.246 8.69M141.668 137.723l-25.184 3.19M146.414 112.785l-4.746 24.938M116.484 140.914l-5.683-23.617M116.484 140.914l-12.222 22.25M110.8 117.297l20.063 15.55M110.8 117.297l-25.183 3.19M126.352 97.234l-15.55 20.063M130.863 132.848l15.55-20.063M146.414 112.785l-20.062-15.55M146.414 112.785l25.184-3.19M171.598 109.594l5.41 11.484" stroke-width="1.2" stroke="#000" stroke-miterlimit="10" fill="none"/><path d="M177.008 121.078l5.406 11.48" stroke-width="1.2" stroke="#00f" stroke-miterlimit="10" fill="none"/><path d="M171.598 109.594L187.746 89.5l-7.85-4.313zm0 0"/><path d="M182.414 132.56l12.47 2.374" stroke-width="1.2" stroke="#00f" stroke-miterlimit="10" fill="none"/><path d="M194.883 134.934l12.47 2.37" stroke-width="1.2" stroke="#000" stroke-miterlimit="10" fill="none"/><path d="M179.414 127.06h7v11h-7zm0 0" fill="#fff"/><use xlink:href="#a" x="179.414" y="135.722" fill="#00f"/><path d="M207.352 137.305l8.355 23.972M215.707 161.277l-16.578 19.22M218.574 167.098l-13.265 15.38M240.645 166.023l-24.938-4.746M199.13 180.496l8.358 23.973M207.488 204.47l24.934 4.745M211.098 199.074l19.95 3.797M232.422 209.215l16.582-19.223M232.422 209.215l8.36 23.97M249.004 189.992l-8.36-23.97M242.527 189.563l-6.687-19.176M240.78 233.184l4.177 11.984" stroke-width="1.2" stroke="#000" stroke-miterlimit="10" fill="none"/><path d="M244.957 245.168l4.18 11.984" stroke-width="1.2" stroke="#3cc" stroke-miterlimit="10" fill="none"/><path d="M240.78 233.184l-11.983 4.18" stroke-width="1.2" stroke="#000" stroke-miterlimit="10" fill="none"/><path d="M228.797 237.363l-11.984 4.18" stroke-width="1.2" stroke="#3cc" stroke-miterlimit="10" fill="none"/><path d="M240.78 233.184l11.986-4.176" stroke-width="1.2" stroke="#000" stroke-miterlimit="10" fill="none"/><path d="M252.766 229.008l11.984-4.18" stroke-width="1.2" stroke="#3cc" stroke-miterlimit="10" fill="none"/><path d="M246.137 251.652h6v11h-6zm0 0" fill="#fff"/><use xlink:href="#b" x="246.137" y="260.315" fill="#3cc"/><path d="M210.813 236.043h6v11h-6zm0 0" fill="#fff"/><use xlink:href="#b" x="210.813" y="244.706" fill="#3cc"/><path d="M261.75 219.328h6v11h-6zm0 0" fill="#fff"/><use xlink:href="#b" x="261.75" y="227.991" fill="#3cc"/><path d="M183.82 87.344l25.38-.54M186.23 81.32l20.3-.433M170.66 65.637l13.16 21.707M209.2 86.805l12.218-22.25M221.418 64.555l-13.156-21.707M214.996 65.48L204.47 48.113M208.262 42.848l-25.38.54M182.883 43.387l-12.223 22.25M186.895 48.488l-9.778 17.797M85.617 120.488l-15.355-20.215M79.324 122.082L67.04 105.91M75.79 143.895l9.827-23.407M70.262 100.273l-25.184 3.192M45.078 103.465L35.25 126.87M49.602 108.117l-7.864 18.727M35.25 126.87l15.355 20.216M50.605 147.086l25.184-3.19M52.37 140.84l20.15-2.555M104.262 163.164l-25.38.54M101.852 169.188l-20.3.433M117.422 184.87l-13.16-21.706M78.883 163.703l-12.22 22.25M66.664 185.953L79.82 207.66M73.086 185.027l10.527 17.368M79.82 207.66l25.38-.54M79.82 207.66l-12.218 22.25M105.2 207.12l12.222-22.25M101.188 202.02l9.777-17.8M67.602 229.91l-6.114 11.125" stroke-width="1.2" stroke="#000" stroke-miterlimit="10" fill="none"/><path d="M61.488 241.035l-6.11 11.125" stroke-width="1.2" stroke="#3cc" stroke-miterlimit="10" fill="none"/><path d="M67.602 229.91l-11.125-6.11" stroke-width="1.2" stroke="#000" stroke-miterlimit="10" fill="none"/><path d="M56.477 223.8l-11.125-6.113" stroke-width="1.2" stroke="#3cc" stroke-miterlimit="10" fill="none"/><path d="M67.602 229.91l11.125 6.11" stroke-width="1.2" stroke="#000" stroke-miterlimit="10" fill="none"/><path d="M78.727 236.02l11.125 6.113" stroke-width="1.2" stroke="#3cc" stroke-miterlimit="10" fill="none"/><path d="M49.38 246.66h6v11h-6zm0 0" fill="#fff"/><use xlink:href="#b" x="49.379" y="255.323" fill="#3cc"/><path d="M39.352 212.188h6v11h-6zm0 0" fill="#fff"/><use xlink:href="#b" x="39.352" y="220.851" fill="#3cc"/><path d="M86.852 236.633h6v11h-6zm0 0" fill="#fff"/><use xlink:href="#b" x="86.852" y="245.296" fill="#3cc"/></g></svg>
